X:27
T: Gei Beijing shao feng xin
N: C0035
O: China, Gansu, Hezheng
S: I, 112]
N: hat verschiedene Varianten, z.B. "jian jian hua"
R: Xiaodiao, Fang fengzheng. Xin mingge]
M: 2/4
L: 1/16
K: G
A2d2d2A2 | d6g2 | e2d2c2BA | G6A2
d4d2g2 | e2d2c2A2 | c2A2G2D2 | G8
G3Ad2d2 | d3ge2d2 | G3Ac2B2 | A2c2A2G2
AGF4G2 | A2c2c2E2 | D6G2 | D8
d2A2d2g2 | d2cBA2G2
AGF4G2 | A2c2c2E2 | D6G2 | D8

